src/assets/duotone/Chart1.svg

<svg width="24" height="24" viewBox="0 0 24 24"  xmlns="http://www.w3.org/2000/svg">
<path opacity="0.4" d="M21 22.75H3C2.59 22.75 2.25 22.41 2.25 22C2.25 21.59 2.59 21.25 3 21.25H21C21.41 21.25 21.75 21.59 21.75 22C21.75 22.41 21.41 22.75 21 22.75Z" />
<path d="M5.59998 8.37988H4C3.45 8.37988 3 8.82988 3 9.37988V17.9999C3 18.5499 3.45 18.9999 4 18.9999H5.59998C6.14998 18.9999 6.59998 18.5499 6.59998 17.9999V9.37988C6.59998 8.81988 6.14998 8.37988 5.59998 8.37988Z" />
<path d="M12.8002 5.19043H11.2002C10.6502 5.19043 10.2002 5.64043 10.2002 6.19043V18.0004C10.2002 18.5504 10.6502 19.0004 11.2002 19.0004H12.8002C13.3502 19.0004 13.8002 18.5504 13.8002 18.0004V6.19043C13.8002 5.64043 13.3502 5.19043 12.8002 5.19043Z" />
<path d="M19.9999 2H18.3999C17.8499 2 17.3999 2.45 17.3999 3V18C17.3999 18.55 17.8499 19 18.3999 19H19.9999C20.5499 19 20.9999 18.55 20.9999 18V3C20.9999 2.45 20.5499 2 19.9999 2Z" />
</svg>

<?xml version="1.0" encoding="UTF-8"?>
<svg width="24" height="24" viewBox="0 0 24 24" xmlns="http://www.w3.org/2000/svg">
 <path d="m21 22.75h-18c-0.41 0-0.75-0.34-0.75-0.75s0.34-0.75 0.75-0.75h18c0.41 0 0.75 0.34 0.75 0.75s-0.34 0.75-0.75 0.75z" opacity=".4"/>
 <path d="m5.6 8.3799h-1.6c-0.55 0-1 0.45-1 1v8.62c0 0.55 0.45 1 1 1h1.6c0.55 0 1-0.45 1-1v-8.62c0-0.56-0.45-1-1-1z"/>
 <path d="m12.8 5.1904h-1.6c-0.55 0-1 0.45-1 1v11.81c0 0.55 0.45 1 1 1h1.6c0.55 0 1-0.45 1-1v-11.81c0-0.55-0.45-1-1-1z"/>
 <path d="m20 2h-1.6c-0.55 0-1 0.45-1 1v15c0 0.55 0.45 1 1 1h1.6c0.55 0 1-0.45 1-1v-15c0-0.55-0.45-1-1-1z"/>
</svg>
